svg/other/first_aid_kit_fill.svg

<svg xmlns="http://www.w3.org/2000/svg" width="24" height="24" viewBox="0 0 24 24"><g fill="none" fill-rule="evenodd"><path d="M24,0 L24,24 L0,24 L0,0 L24,0 Z M12.5935,23.2578 L12.5819,23.2595 L12.5109,23.295 L12.4919,23.2987 L12.4767,23.295 L12.4057,23.2595 C12.3958,23.2564 12.387,23.259 12.3821,23.2649 L12.378,23.2758 L12.3609,23.7031 L12.3659,23.7235 L12.3769,23.7357 L12.4805,23.8097 L12.4953,23.8136 L12.5071,23.8097 L12.6107,23.7357 L12.6233,23.7197 L12.6267,23.7031 L12.6096,23.2758 C12.6076,23.2657 12.601,23.2593 12.5935,23.2578 Z M12.8584,23.1453 L12.8445,23.1473 L12.6598,23.2397 L12.6499,23.2499 L12.6472,23.2611 L12.6651,23.6906 L12.6699,23.7034 L12.6784,23.7105 L12.8793,23.8032 C12.8914,23.8069 12.9022,23.803 12.9078,23.7952 L12.9118,23.7812 L12.8777,23.1665 C12.8753,23.1546 12.8674,23.147 12.8584,23.1453 Z M12.143,23.1473 C12.1332,23.1424 12.1222,23.1453 12.1156,23.1526 L12.1099,23.1665 L12.0758,23.7812 C12.0751,23.7927 12.0828,23.8019 12.0926,23.8046 L12.1083,23.8032 L12.3092,23.7105 L12.3186,23.7024 L12.3225,23.6906 L12.3404,23.2611 L12.3372,23.2485 L12.3278,23.2397 L12.143,23.1473 Z"/><path fill="#09244B" d="M15,3 C16.1046,3 17,3.89543 17,5 L17,6 L18,6 C19.6569,6 21,7.34315 21,9 L21,18 C21,19.6569 19.6569,21 18,21 L6,21 C4.34315,21 3,19.6569 3,18 L3,9 C3,7.34315 4.34315,6 6,6 L7,6 L7,5 C7,3.89543 7.89543,3 9,3 L15,3 Z M12,12 C11.48715,12 11.0644908,12.386027 11.0067275,12.8833761 L11,13 L11,14 L10,14 C9.44772,14 9,14.4477 9,15 C9,15.51285 9.38604429,15.9355092 9.88337975,15.9932725 L10,16 L11,16 L11,17 C11,17.5523 11.4477,18 12,18 C12.51285,18 12.9355092,17.613973 12.9932725,17.1166239 L13,17 L13,16 L14,16 C14.5523,16 15,15.5523 15,15 C15,14.48715 14.613973,14.0644908 14.1166239,14.0067275 L14,14 L13,14 L13,13 C13,12.4477 12.5523,12 12,12 Z M18,8 L6,8 C5.44772,8 5,8.44772 5,9 L19,9 C19,8.44772 18.5523,8 18,8 Z M15,5 L9,5 L9,6 L15,6 L15,5 Z"/></g></svg>

<svg xmlns="http://www.w3.org/2000/svg" width="24" height="24"><g fill="none" fill-rule="evenodd"><path d="M24 0v24H0V0zM12.594 23.258l-.012.002-.071.035-.02.004-.014-.004-.071-.036c-.01-.003-.019 0-.024.006l-.004.01-.017.428.005.02.01.013.104.074.015.004.012-.004.104-.074.012-.016.004-.017-.017-.427c-.002-.01-.009-.017-.016-.018m.264-.113-.014.002-.184.093-.01.01-.003.011.018.43.005.012.008.008.201.092c.012.004.023 0 .029-.008l.004-.014-.034-.614c-.003-.012-.01-.02-.02-.022m-.715.002a.023.023 0 0 0-.027.006l-.006.014-.034.614c0 .012.007.02.017.024l.015-.002.201-.093.01-.008.003-.011.018-.43-.003-.012-.01-.01z"/><path fill="#09244B" d="M15 3a2 2 0 0 1 2 2v1h1a3 3 0 0 1 3 3v9a3 3 0 0 1-3 3H6a3 3 0 0 1-3-3V9a3 3 0 0 1 3-3h1V5a2 2 0 0 1 2-2zm-3 9a1 1 0 0 0-.993.883L11 13v1h-1a1 1 0 0 0-.117 1.993L10 16h1v1a1 1 0 0 0 1.993.117L13 17v-1h1a1 1 0 0 0 .117-1.993L14 14h-1v-1a1 1 0 0 0-1-1m6-4H6a1 1 0 0 0-1 1h14a1 1 0 0 0-1-1m-3-3H9v1h6z"/></g></svg>
